icon-svg/rooms-recreation.svg

<?xml version="1.0" encoding="UTF-8"?>
<svg width="32px" height="32px" viewBox="0 0 32 32" version="1.1" fill="#44739e" xmlns="http://www.w3.org/2000/svg" xmlns:xlink="http://www.w3.org/1999/xlink">
            <path d="M25,22 C26.657,22 28,23.343 28,25 C28,26.657 26.657,28 25,28 C23.343,28 22,26.657 22,25 C22,23.343 23.343,22 25,22 Z M26.3475,20.2077341 C25.9155,20.0857341 25.4695,19.9997341 24.9995,19.9997341 C22.2435,19.9997341 19.9995,22.2427341 19.9995,24.9997341 C17.6345,25.5207341 14.8735,25.0717341 12.6735,23.9537341 C12.0975,23.6617341 11.4005,23.7717341 10.9435,24.2287341 L7.4525,27.7067341 C7.0625,28.0977341 6.4275,28.0977341 6.0365,27.7067341 L4.2925,25.9687341 C3.9025,25.5787341 3.9025,24.9457341 4.2925,24.5567341 L7.7845,21.0757341 C8.2325,20.6287341 8.3625,19.9417341 8.0725,19.3807341 C5.7815,14.9317341 6.8745,9.19673413 11.3635,5.98073413 C15.0925,3.30873413 19.9725,3.34473413 23.6695,6.06073413 C28.3495,9.49873413 29.2255,15.7007341 26.3475,20.2077341 Z"></path>
</svg>

<svg xmlns="http://www.w3.org/2000/svg" fill="#44739e" viewBox="0 0 24 24"><path d="M25 22c1.657 0 3 1.343 3 3s-1.343 3-3 3-3-1.343-3-3 1.343-3 3-3m1.3475-1.7923c-.432-.122-.878-.208-1.348-.208-2.756 0-5 2.243-5 5-2.365.521-5.126.072-7.326-1.046a1.491 1.491 0 0 0-1.73.275l-3.491 3.478c-.39.391-1.025.391-1.416 0l-1.744-1.738c-.39-.39-.39-1.023 0-1.412l3.492-3.481c.448-.447.578-1.134.288-1.695-2.291-4.449-1.198-10.184 3.291-13.4 3.729-2.672 8.609-2.636 12.306.08 4.68 3.438 5.556 9.64 2.678 14.147"/></svg>
